resources/WikimediaUI-icons-SVGs/error.svg

<?xml version="1.0" encoding="UTF-8"?>
<svg xmlns="http://www.w3.org/2000/svg" width="20" height="20" viewBox="0 0 20 20">
	<title>
		error
	</title>
	<path d="m13.728 1h-7.456l-5.272 5.272v7.456l5.272 5.272h7.456l5.272-5.272v-7.456zm-2.728 14h-2v-2h2zm0-4h-2v-6h2z" />
</svg>

<?xml version="1.0" encoding="UTF-8"?>
<svg xmlns="http://www.w3.org/2000/svg" width="20" height="20" viewBox="0 0 20 20">
	<title>
		error
	</title>
	<path d="M13.728 1H6.272L1 6.272v7.456L6.272 19h7.456L19 13.728V6.272zM11 15H9v-2h2zm0-4H9V5h2z"/>
</svg>
